src/icons/seal.svg

<?xml version="1.0" encoding="UTF-8"?>
<svg xmlns="http://www.w3.org/2000/svg" xmlns:xlink="http://www.w3.org/1999/xlink" width="32" height="32" viewBox="0 0 32 32" version="1.1">
<g id="surface1">
<path style=" stroke:none;fill-rule:nonzero;fill:rgb(0%,0%,0%);fill-opacity:1;" d="M 13.761719 0.640625 C 12.878906 0.648438 12.027344 1.101562 11.539062 1.910156 L 11.367188 2.191406 C 11.125 2.59375 10.703125 2.835938 10.238281 2.84375 L 9.910156 2.851562 C 8.492188 2.878906 7.359375 4.011719 7.332031 5.429688 L 7.324219 5.757812 C 7.316406 6.222656 7.070312 6.648438 6.671875 6.890625 L 6.390625 7.058594 C 5.179688 7.789062 4.765625 9.339844 5.449219 10.582031 L 5.605469 10.867188 C 5.832031 11.277344 5.832031 11.761719 5.605469 12.171875 L 5.449219 12.457031 C 4.765625 13.699219 5.179688 15.25 6.390625 15.984375 L 6.671875 16.152344 C 7.070312 16.394531 7.316406 16.816406 7.324219 17.28125 L 7.332031 17.609375 C 7.363281 19.027344 8.496094 20.160156 9.910156 20.1875 L 10.238281 20.195312 C 10.703125 20.207031 11.125 20.449219 11.367188 20.847656 L 11.539062 21.128906 C 12.03125 21.945312 12.898438 22.398438 13.789062 22.398438 C 14.21875 22.398438 14.65625 22.292969 15.058594 22.074219 L 15.347656 21.914062 C 15.753906 21.6875 16.242188 21.691406 16.652344 21.914062 L 16.941406 22.070312 C 18.179688 22.753906 19.726562 22.339844 20.460938 21.128906 L 20.632812 20.847656 C 20.875 20.449219 21.296875 20.207031 21.761719 20.195312 L 22.089844 20.191406 C 23.507812 20.160156 24.640625 19.027344 24.667969 17.609375 L 24.675781 17.28125 C 24.683594 16.816406 24.929688 16.394531 25.328125 16.152344 L 25.609375 15.984375 C 26.820312 15.25 27.234375 13.703125 26.550781 12.460938 L 26.394531 12.171875 C 26.167969 11.761719 26.167969 11.277344 26.394531 10.867188 L 26.550781 10.582031 C 27.234375 9.339844 26.820312 7.789062 25.609375 7.058594 L 25.328125 6.890625 C 24.929688 6.648438 24.683594 6.222656 24.675781 5.757812 L 24.667969 5.429688 C 24.636719 4.011719 23.507812 2.878906 22.089844 2.851562 L 21.761719 2.84375 C 21.296875 2.835938 20.875 2.589844 20.632812 2.191406 L 20.460938 1.914062 C 19.730469 0.699219 18.179688 0.285156 16.941406 0.96875 L 16.652344 1.125 C 16.246094 1.351562 15.757812 1.351562 15.347656 1.125 L 15.058594 0.96875 C 14.648438 0.742188 14.199219 0.636719 13.761719 0.640625 Z M 23.433594 21.210938 C 23.023438 21.367188 22.582031 21.460938 22.117188 21.46875 L 21.789062 21.476562 C 21.761719 21.476562 21.742188 21.488281 21.726562 21.511719 L 21.554688 21.792969 C 20.914062 22.855469 19.835938 23.527344 18.625 23.65625 L 18.441406 24.078125 L 16.71875 28.015625 L 18.011719 30.976562 C 18.101562 31.183594 18.292969 31.324219 18.515625 31.355469 C 18.542969 31.359375 18.570312 31.359375 18.601562 31.359375 C 18.792969 31.359375 18.976562 31.273438 19.101562 31.121094 L 21.46875 28.160156 L 25.640625 28.160156 C 25.859375 28.160156 26.0625 28.046875 26.179688 27.863281 C 26.296875 27.679688 26.3125 27.449219 26.222656 27.25 Z M 8.601562 21.222656 L 5.820312 27.25 C 5.726562 27.449219 5.742188 27.679688 5.859375 27.863281 C 5.976562 28.046875 6.183594 28.160156 6.398438 28.160156 L 10.574219 28.160156 L 12.941406 31.121094 C 13.0625 31.273438 13.246094 31.359375 13.441406 31.359375 C 13.46875 31.359375 13.496094 31.359375 13.523438 31.355469 C 13.746094 31.324219 13.9375 31.183594 14.027344 30.976562 L 17.269531 23.5625 C 16.941406 23.480469 16.621094 23.359375 16.324219 23.195312 L 16.035156 23.039062 C 16.023438 23.03125 16.011719 23.027344 16 23.027344 C 15.988281 23.027344 15.976562 23.03125 15.964844 23.039062 L 15.675781 23.195312 C 15.097656 23.511719 14.445312 23.683594 13.789062 23.683594 C 12.410156 23.683594 11.160156 22.976562 10.445312 21.792969 L 10.273438 21.511719 C 10.257812 21.488281 10.238281 21.476562 10.210938 21.476562 L 9.882812 21.46875 C 9.433594 21.460938 9 21.371094 8.601562 21.222656 Z M 8.601562 21.222656 "/>
</g>
</svg>

<svg role="img" viewBox="0 0 32 32" xmlns="http://www.w3.org/2000/svg"><path d="M13.762.64a2.618 2.618 0 0 0-2.223 1.27l-.172.281a1.336 1.336 0 0 1-1.129.653l-.328.008A2.622 2.622 0 0 0 7.332 5.43l-.008.328c-.008.465-.254.89-.652 1.133l-.281.168a2.627 2.627 0 0 0-.942 3.523l.156.285c.227.41.227.895 0 1.305l-.156.285a2.633 2.633 0 0 0 .942 3.527l.28.168c.4.243.645.664.653 1.13l.008.327a2.627 2.627 0 0 0 2.578 2.578l.328.008c.465.012.887.254 1.13.653l.171.28a2.623 2.623 0 0 0 2.25 1.27c.43 0 .867-.105 1.27-.324l.289-.16a1.347 1.347 0 0 1 1.304 0l.29.156a2.624 2.624 0 0 0 3.519-.941l.172-.281a1.353 1.353 0 0 1 1.129-.653l.328-.004a2.628 2.628 0 0 0 2.578-2.582l.008-.328c.008-.465.254-.886.652-1.129l.281-.168a2.628 2.628 0 0 0 .942-3.523l-.156-.29a1.337 1.337 0 0 1 0-1.304l.156-.285a2.627 2.627 0 0 0-.942-3.523l-.28-.168a1.351 1.351 0 0 1-.653-1.133l-.008-.328a2.625 2.625 0 0 0-2.578-2.578l-.328-.008a1.345 1.345 0 0 1-1.13-.653l-.171-.277A2.621 2.621 0 0 0 16.94.97l-.289.156a1.337 1.337 0 0 1-1.304 0l-.29-.156a2.634 2.634 0 0 0-1.294-.33m9.672 20.57c-.41.157-.852.25-1.317.259l-.328.008a.07.07 0 0 0-.062.035l-.172.281a3.879 3.879 0 0 1-2.93 1.863l-.184.422-1.722 3.938 1.293 2.96a.643.643 0 0 0 1.09.145l2.367-2.96h4.172a.641.641 0 0 0 .582-.911Zm-14.832.013L5.82 27.25c-.093.2-.078.43.04.613a.646.646 0 0 0 .538.297h4.176l2.367 2.961a.635.635 0 0 0 .5.238c.028 0 .055 0 .082-.004a.643.643 0 0 0 .504-.378l3.243-7.414a3.922 3.922 0 0 1-.946-.368l-.289-.156a.063.063 0 0 0-.035-.012.063.063 0 0 0-.035.012l-.29.156a3.946 3.946 0 0 1-1.886.489 3.879 3.879 0 0 1-3.344-1.891l-.172-.281a.07.07 0 0 0-.062-.035l-.328-.008a3.869 3.869 0 0 1-1.281-.246m0 0" style="stroke:none;fill-rule:nonzero;fill:rgb(0%,0%,0%);fill-opacity:1"/></svg>
